X: 1
T:The Sound of Sleat
C:Trad
R:Reel
M:C
K:D
Z:From Ossian. Presumably a Skye tune.
L:1/8
A2 AB Bd d2 | e2 ed ef f2 | A2 AB Bdde | fded {A}B2 A2 :|
f2 fe fa a2 | e2 de fdBA | f2 fe fa a2 | fded {A}B2 A2 |
f2 fe fa a2 | e2 de fdBA | e2 ed ef f2 | fded {A}B2 A2 |
|: A2 AG B2 BA | d2 df edef | A2 AG B2 BA | fded B2 A2 :|
a2 f(a a)f a2 | e2 de fdBA | a2 fa- af a2 | fded B2 A2 |
 a2 f(a a)f a2 | e2 de fdBA | d2 df edef | fded B2 A2 ||
